X: 173
T: Pan zhangfu
%%abc-version 2.0
%%abcx-abcm2ps-target-version 5.9.1 (29 Sep 2008)
%%abc-creator hum2abc beta
%%abcx-conversion-date 2013/10/02 07:52:29
%%abc-edited-by Helmut Schaffrath
%%humdrum-veritas 1202383803
%%humdrum-veritas-data 3728480575
%%continueall 1
%%barnumbers 0
L: 1/16
M: 2/4
K: G
e2 e2 d e d B [I:setbarnb 1]| 
A8 | 
d2 d E G A G E | 
D8 | 
G2 G EA4 | 
B d B A E2 E G | 
A2 A B G A G E | 
D8 | 
e2 e dB4 | 
e g e dB4 | 
A B A G E G D E | 
G8 | 
e2 e dB4 | 
A B A GE4 | 
A2 d d G A G E | 
D8 | 
G2 G A B d B A | 
G2G6 | 
G2 G A B d B A | 
G2G6 | 
e2 e dB4 | 
A B A G E2 E2 | 
A2 d d G A G E | 
D8 |]  



